X: 1
T: the Farmer's Joy
C: Adam Broome
R: jig
S: Paul Lizotte's Joy of Sets collection
S: printed copy of unknown origin
Z: 2015 John Chambers <jc:trillian.mit.edu>
M: 6/8
L: 1/8
K: A
|: z3 |\
"A"efa c2c | "E7"dcB "A"c2A | c2A cde | "D"f3 "A"e3 |\
"A"efa c2c | "E7"dcB "A"c2A | cde "E7"dcB | "A"A3 :|
|: AGA |\
"E7"B2E B2B | BcA B2E | B2E "(D)"Bcd | "A"c2A "E"B3 |\
"E7"B2E B2B | BcA B2e | "D"efa "E7"c2B | "A"A3 :|
